X:1
T:[ID 1-141a]
T:[ID 1-141a]
T:Bezeichnung standardisiert: Menuett Menuet 5. In dieser Quelle auch als: Menuetto
T:Urheber unbekannt Datum in der hier transkribierten schriftlichen Quelle: vermutlich vor 1767
C:Urheber unbekannt
C:Datum in der hier transkribierten schriftlichen Quelle: vermutlich vor 1767
L:1/8
M:3/4
K:D
V:1 treble 
V:1
 D2 D2 (D/E/F/G/) | A3 F D2 | E2 F2 G2 | A3 F D2 | E2 F2 G2 | A2 a^g a2 | BdcBA^G | A6 :: %8
 a2 a2 a2 | b2 babg | g4 (3efg | a2 agaf | ABcdef | gecA d2 | (3BAG F2 E2 |{F} E2 D4 :| %16

